packages/foundations/assets/icons/functional/images/editing/check_16.svg

<svg width="16" height="16" viewBox="0 0 16 16" fill="none" xmlns="http://www.w3.org/2000/svg">
<g clip-path="url(#clip0_83_124)">
<path fill-rule="evenodd" clip-rule="evenodd" d="M3.2 8.41798C3.2 7.97598 3.626 7.61498 4.003 7.61498C4.216 7.61498 4.416 7.70998 4.573 7.86498L6.395 9.67998L11.44 4.61698C11.5892 4.47172 11.7888 4.38968 11.997 4.38798C12.456 4.38798 12.8 4.74798 12.8 5.19098C12.7981 5.39917 12.7161 5.59864 12.571 5.74798L6.964 11.378C6.88951 11.4532 6.80067 11.5126 6.70275 11.5528C6.60484 11.593 6.49984 11.6131 6.394 11.612C6.28835 11.6128 6.18359 11.5926 6.08588 11.5524C5.98817 11.5122 5.89947 11.4529 5.825 11.378L3.442 8.99598C3.2879 8.84301 3.20086 8.6351 3.2 8.41798Z" fill="#1A1C1F"/>
</g>
<defs>
<clipPath id="clip0_83_124">
<rect width="16" height="16" fill="white"/>
</clipPath>
</defs>
</svg>

<svg xmlns="http://www.w3.org/2000/svg" width="16" height="16" fill="none"><g clip-path="url(#a)"><path fill="#1A1C1F" fill-rule="evenodd" d="M3.2 8.418c0-.442.426-.803.803-.803.213 0 .413.095.57.25L6.395 9.68l5.045-5.063a.8.8 0 0 1 .557-.229c.459 0 .803.36.803.803a.8.8 0 0 1-.229.557l-5.607 5.63a.8.8 0 0 1-.57.234.8.8 0 0 1-.569-.234L3.442 8.996a.82.82 0 0 1-.242-.578" clip-rule="evenodd"/></g><defs><clipPath id="a"><path fill="#fff" d="M0 0h16v16H0z"/></clipPath></defs></svg>
